!! 00000] TT[WS
!!!OTL: Liumei duohuen
!!!ARE: Asia, China, Shanxi Zuoquan
!! Ethnic Group: Han
!! WII, 140 (2)
!!!SCT: J0615
!!!YEM: Copyright 1995, estate of Helmut Schaffrath.
**kern
*ICvox
*Ivox
*M2/4
*k[b-]
*F:
{8.g
16g
8f
8g
=1
4cc
4ff
=2
8g
8g
8f
8e
=3
4.c
8r}
=4
{8.f
16g
8a
8a
=5
8g
8g
8f
8e
=6
16c
16A
8c
16e
16g
8e
=7
2c}
==
!!!AGN: Xiaodiao. Qingge, Aisu
!!!ONB: ESAC (Essen Associative Code) Database: CHINA
!!!AMT: simple duple
!!!AIN: vox
!!!EED: Helmut Schaffrath
!!!EEV: 1.0
*-
